64x64/apps/Mindustry.svg

<svg height="64" width="64" xmlns="http://www.w3.org/2000/svg"><rect height="56" opacity=".2" rx="2.8" width="56" x="4" y="5"/><rect fill="#4f4f4f" height="56" rx="2.8" width="56" x="4" y="4"/><path d="m20 25v26h6v-17.21l5.706 6.244 6.294-6.528v17.494h6v-26h-6.27l-5.92 6.74-5.62-6.74zm-4 2.667-12 5.727v6.324l12 5.922v-6.246l-5.691-2.809 5.691-2.715z" opacity=".2"/><path d="m20 24v26h6v-17.21l5.706 6.244 6.294-6.528v17.494h6v-26h-6.27l-5.92 6.74-5.62-6.74z" fill="#9a9a9a"/><path d="m20 19v26h6v-17.21l5.706 6.244 6.294-6.528v17.494h6v-26h-6.27l-5.92 6.74-5.62-6.74z" opacity=".2"/><path d="m20 18v26h6v-17.21l5.706 6.244 6.294-6.528v17.494h6v-26h-6.27l-5.92 6.74-5.62-6.74z" fill="#f4f4f7"/><path d="m16 26.667-12 5.727v6.324l12 5.922v-6.246l-5.691-2.809 5.691-2.715z" fill="#dd7456"/><path d="m16 22.07-12 5.726v6.324l12 5.922v-6.246l-5.691-2.808 5.691-2.715z" opacity=".2"/><path d="m16 21.07-12 5.726v6.324l12 5.922v-6.246l-5.691-2.808 5.691-2.715z" fill="#ffc45a"/><path d="m48 27.667v6.203l5.691 2.715-5.691 2.809v6.246l12-5.922v-6.324z" opacity=".2"/><path d="m48 26.667v6.203l5.691 2.715-5.691 2.809v6.246l12-5.922v-6.324z" fill="#dd7456"/><path d="m48 22.07v6.203l5.691 2.715-5.691 2.808v6.246l12-5.922v-6.324z" opacity=".2"/><path d="m48 21.07v6.203l5.691 2.715-5.691 2.808v6.246l12-5.922v-6.324z" fill="#ffc45a"/><path d="m6.8 4c-1.55 0-2.8 1.25-2.8 2.8v1c0-1.55 1.25-2.8 2.8-2.8h50.4c1.55 0 2.8 1.25 2.8 2.8v-1c0-1.55-1.25-2.8-2.8-2.8z" fill="#f4f4f7" opacity=".1"/></svg>

<svg xmlns="http://www.w3.org/2000/svg" width="64" height="64"><rect style="opacity:.2" width="56" height="56" x="4" y="5" rx="2.8" ry="2.8"/><rect style="fill:#4f4f4f" width="56" height="56" x="4" y="4" rx="2.8" ry="2.8"/><path style="opacity:.2" d="M20 25v26h6V33.79l5.706 6.244L38 33.506V51h6V25h-6.27l-5.92 6.74L26.19 25zM16 27.667 4 33.394v6.324l12 5.922v-6.246l-5.691-2.809L16 33.87z"/><path style="fill:#9a9a9a" d="M20 24v26h6V32.79l5.706 6.244L38 32.506V50h6V24h-6.27l-5.92 6.74L26.19 24z"/><path style="opacity:.2" d="M20 19v26h6V27.79l5.706 6.244L38 27.506V45h6V19h-6.27l-5.92 6.74L26.19 19z"/><path style="fill:#f4f4f7" d="M20 18v26h6V26.79l5.706 6.244L38 26.506V44h6V18h-6.27l-5.92 6.74L26.19 18z"/><path style="fill:#dd7456" d="M16 26.667 4 32.394v6.324l12 5.922v-6.246l-5.691-2.809L16 32.87z"/><path style="opacity:.2" d="M16 22.07 4 27.796v6.324l12 5.922v-6.246l-5.691-2.808L16 28.273z"/><path style="fill:#ffc45a" d="M16 21.07 4 26.796v6.324l12 5.922v-6.246l-5.691-2.808L16 27.273z"/><path style="opacity:.2" d="M48 27.667v6.203l5.691 2.715L48 39.394v6.246l12-5.922v-6.324z"/><path style="fill:#dd7456" d="M48 26.667v6.203l5.691 2.715L48 38.394v6.246l12-5.922v-6.324z"/><path style="opacity:.2" d="M48 22.07v6.203l5.691 2.715L48 33.796v6.246l12-5.922v-6.324z"/><path style="fill:#ffc45a" d="M48 21.07v6.203l5.691 2.715L48 32.796v6.246l12-5.922v-6.324z"/><path style="opacity:.1;fill:#f4f4f7" d="M6.8 4C5.25 4 4 5.25 4 6.8v1C4 6.25 5.25 5 6.8 5h50.4C58.75 5 60 6.25 60 7.8v-1C60 5.25 58.75 4 57.2 4H6.8z"/></svg>
